packages/core/src/svgs/tokens/branded/APT.svg

<svg width="24" height="24" viewBox="0 0 24 24" fill="none" xmlns="http://www.w3.org/2000/svg">
<path d="M17.7314 9.36154L6.25546 13.4368C5.63041 13.6619 5.00536 13.1243 5.12413 12.4868L6.18671 6.71133C6.21797 6.51131 6.33047 6.3363 6.48673 6.20504L11.4621 2.19221C11.7747 1.93593 12.2309 1.93593 12.5434 2.19221L17.5439 6.22378C17.6877 6.34254 17.7939 6.4988 17.8376 6.67381L18.2752 8.34271C18.3877 8.76774 18.1502 9.21154 17.7314 9.36154ZM4.46782 16.2934L3.89277 19.2186C3.81776 19.5936 3.99903 19.9687 4.33656 20.1374C6.70986 21.3558 9.33819 21.994 12.006 22C13.4748 22 16.3814 21.8063 19.6003 20.1749C19.9815 19.9812 20.1879 19.5623 20.1065 19.1436L18.7315 11.8305C18.7083 11.7083 18.6587 11.5925 18.5862 11.4914C18.5139 11.3903 18.4203 11.3062 18.3119 11.2449C18.2037 11.1835 18.0834 11.1466 17.9594 11.1366C17.8353 11.1265 17.7106 11.1436 17.5939 11.1867L5.03036 15.6557C4.73659 15.7558 4.53032 15.9996 4.46782 16.2934Z" fill="url(#paint0_linear_364_6394)"/>
<defs>
<linearGradient id="paint0_linear_364_6394" x1="20.0253" y1="21.8876" x2="9.59955" y2="3.46106" gradientUnits="userSpaceOnUse">
<stop offset="0.11" stop-color="#C65CFF"/>
<stop offset="0.18" stop-color="#BA6BFF"/>
<stop offset="0.33" stop-color="#9991FF"/>
<stop offset="0.53" stop-color="#66CCFF"/>
<stop offset="0.81" stop-color="#42F0DB"/>
<stop offset="0.97" stop-color="#33FFCC"/>
</linearGradient>
</defs>
</svg>

<svg xmlns="http://www.w3.org/2000/svg" width="24" height="24" fill="none" viewBox="0 0 24 24">
    <path fill="url(#APT__a)" d="M17.731 9.362 6.255 13.437a.852.852 0 0 1-1.13-.95L6.186 6.71a.84.84 0 0 1 .3-.506l4.975-4.013a.856.856 0 0 1 1.081 0l5 4.032c.145.119.25.275.295.45l.437 1.669a.855.855 0 0 1-.544 1.019M4.468 16.293l-.575 2.926a.84.84 0 0 0 .444.918A16.9 16.9 0 0 0 12.006 22a16.8 16.8 0 0 0 7.594-1.825.95.95 0 0 0 .506-1.031l-1.375-7.313a.856.856 0 0 0-1.137-.644L5.03 15.656c-.293.1-.5.344-.562.637"/>
    <defs>
        <linearGradient id="APT__a" x1="20.025" x2="9.6" y1="21.888" y2="3.461" gradientUnits="userSpaceOnUse">
            <stop offset=".11" stop-color="#C65CFF"/>
            <stop offset=".18" stop-color="#BA6BFF"/>
            <stop offset=".33" stop-color="#9991FF"/>
            <stop offset=".53" stop-color="#6CF"/>
            <stop offset=".81" stop-color="#42F0DB"/>
            <stop offset=".97" stop-color="#3FC"/>
        </linearGradient>
    </defs>
</svg>
